X:1
T:Title
%%score ( 1 2 ) { 3 | 4 }
L:1/8
Q:1/4=104
M:6/8
K:G
V:1 treble nm="Grand Piano, Soprano"
V:2 treble 
V:3 treble nm="Choir Pad, Bass"
V:4 bass 
V:1
 z3 .B3 | [FA]2 [FA] [Fd]3 | z3 .G3 | [FA]2 [GB] .[FA]3 | [GB]2 [GB] [Bd][Ac][GB] | %5
 [FA]2 [FA] [Fd]3 | [DF] .[DF]2 [DG] .[DG]2 | [^CE]3 .D3 | [Dd]2 [Gd] [Bd][Ac][GB] | %9
 [Gc]2 [Gc] [Ge]3 | [Gd]2 [GB] dc[GB] | [FA]3 .[Fd]3 | [DG]2 [DG] G[FA][=FB] | .c3 z3 | %14
 [Gd] .[Gd]2 [GB] .[GB]2 | [FA]3 G3- | G6 |] %17
V:2
 [GB]2 [GB] G-[GA]G | x6 | [DG]2 [DG] D-[DF][DG] | x6 | x6 | x6 | x6 | x6 | x6 | x6 | z3 .A3 | x6 | %12
 x6 | EG[Gc] [Ge]3 | x6 | x6 | x6 |] %17
V:3
 D2 D DCB, | D2 D[K:bass] A,3 | B,2 B, DCB, | D3 .D3 | D2 D D2 D | D2 D[K:bass] A,3 | %6
 A, .A,2 B, .B,2 | G,3 .F,3 | B,2 B,[K:treble] D2 D | E2 E C3 | B,2 D D2 D | D3[K:bass] .A,3 | %12
 B,2 B, B,C[K:treble]D | E2 E C3 | B, .B,2 D .D2 | C3 B,3- | B,6 |] %17
V:4
 G,2 G, G,2 G, | D,2 D, D,3 | G,2 G, B,A,G, | D,3 .D,3 | G,2 G, G,2 G, | D,2 D, D,3 | %6
 D, .D,2 G,, .G,,2 | A,,3 .D,3 | G,2 G, G,2 G, | C,2 C, C,3 | G,2 G, F,2 G, | D,3 .D,3 | %12
 G,2 G, G,2 G, | C,2 C, C,3 | D, .D,2 D, .D,2 | D,3 G,,3- | G,,6 |] %17

